X:1
T:James Gibb editions
T:The day Thou gavest, Lord, is ended - Barnby
%%score [ ( 1 2 ) ( 3 4 ) ]
L:1/8
Q:1/4=120
M:3/2
K:D
V:1 treble nm="Midi_74"
V:2 treble 
V:3 bass nm="Midi_74"
V:4 bass 
V:1
"^John Ellerton\n(1826-93)""^98. 98""^The day Thou gavest, Lord, is ended""^Joseph Barnby\n(1838-96)" F2 | %1
 F2 F2 E2 F2 A2 F2 | (F2 E2) D6 || D2 | E2 F2 G2 F2 E2 ^D2 | E8- E2 || E2 | E2 F2 G2 B2 e2 d2 | %8
 d4 c4 || d4 | A2 B2 F2 A2 G2 E2 | D6 || D6 D6 |] %13
V:2
 D2 | D2 D2 E2 D2 D2 D2 | C4 D6 || D2 | =C2 C2 D2 !courtesy!=C2 B,2 B,2 | B,8- B,2 || B,2 | %7
 B,2 ^D2 E2 E2 G2 G2 | G4 G4 || F4 | D2 D2 D2 D2 C2 C2 | D6 || B,6 A,6 |] %13
V:3
 A,2 | A,2 A,2 A,2 A,2 D2 A,2 | G,4 F,6 || F,2 | G,2 A,2 B,2 A,2 G,2 F,2 | G,8- G,2 || %6
"^1 The day Thou gavest, Lord, is ended,\nThe darkness falls at Thy behest;\nTo Thee our morning hymns ascended,\nThy praise shall sanctify our rest.\n\n2 We thank thee that Thy Church unsleeping,\nWhile earth rolls onward into light,\nThrough all the world her watch is keeping,\nand rests not now by day or night.\n\n3 As o'er each continent and island\nThe dawn leads on another day,\nThe voice of prayer is never silent,\nnor dies the strain of praise away." G,2 | %7
 G,2 B,2 B,2 G,2 A,2 B,2 | E4 E4 || D4 | %10
"^4 The sun that bids us rest is waking\nOur brethren 'neath the western sky,\nAnd hour by hour fresh lips are making\nThy wondrous doings heard on high.\n\n5 So be it, Lord: Thy throne shall never,\nLike earth's proud empires, pass away;\nThy kingdom stands, and grows for ever,\nTill all Thy creatures own thy sway." D2 B,2 A,2 F,2 E,2 G,2 | %11
 F,6 || G,6 F,6 |] %13
V:4
 D,2 | D,2 D,2 C,2 D,2 F,2 D,2 | A,,4 B,,6 || B,,2 | A,,2 D,2 G,,2 A,,2 B,,2 B,,2 | E,8- E,2 || %6
 E,2 | E,2 B,,2 E,2 D,2 C,2 B,,2 | A,,4 A,,4 || B,,4 | F,2 G,2 A,2 A,,2 A,,2 A,,2 | D,6 || %12
 G,,6 D,6 |] %13

